svg/color/blocks.svg

<svg width="32" height="32" viewBox="0 0 32 32" fill="none"
	xmlns="http://www.w3.org/2000/svg">
	<path d="M0 16C0 7.16344 7.16344 0 16 0C24.8366 0 32 7.16344 32 16C32 24.8366 24.8366 32 16 32C7.16344 32 0 24.8366 0 16Z" fill="#050203"/>
	<path d="M16 0.959961L2.75195 8.38396L5.44009 9.92932V9.9235L9.80052 12.4302L11.712 11.3591V6.40861L16.0101 3.99998L26.5753 10.0737L29.248 8.57596L16 0.959961ZM9.79196 7.48456V12.4252L5.43995 9.92335L9.79196 7.48456Z M9.79195 12.435L15.9931 8.95996L22.1943 12.5249L20.2267 13.6275L16.004 11.2L11.776 13.5693L11.776 13.5693V13.5756L9.79195 12.435Z" fill="#F92B6C"/>
	<path d="M2.75195 8.38403L5.44009 9.92939V22.1788L16 27.9943V31.04L2.75195 23.744V8.38403Z M11.776 13.5757V18.4715L15.9931 20.794V23.04L9.79195 19.6249V12.4351L11.776 13.5757Z" fill="#821334"/>
	<path d="M16.0103 28L16 27.9944V31.0401L29.248 23.9361V8.57605L26.5754 10.0738L26.5802 10.0765L26.5804 10.0765V22.3317L16.0103 27.9997V28Z M15.9932 20.794L16.0041 20.8V20.8L20.2321 18.5328L20.2321 13.6307L20.2321 13.6307L20.2321 13.6307L20.2267 13.6276L22.1943 12.5249V19.7147L15.9932 23.04V20.794Z" fill="#DF2660"/>
	<path d="M11.7119 6.40864L16.0101 4L26.5803 10.0766L22.1943 12.5344V12.5249L15.9931 8.95998L11.7119 11.3591V6.40864Z M9.79194 7.48458L5.43994 9.92338L9.79194 12.4253V7.48458Z M16.004 11.2L11.7759 13.5693L16.004 16V13.6V11.2Z M16.004 16L20.2321 13.6306L16.004 11.2V13.6V16Z" fill="#FD8EAF"/>
	<path d="M9.80062 12.4303L5.44019 9.92358V22.1788L16.0104 28V23.0308L15.9932 23.04L15.9932 23.04L9.79205 19.6249V12.4351L11.7761 13.5757V13.5757L9.79205 12.4351L9.80062 12.4303Z M11.7761 13.5694L16.0042 16.0001V20.8L11.7761 18.4715V13.5694Z" fill="#FFD7E0"/>
	<path d="M16.0101 23.0308L22.1943 19.7146L22.1943 12.5343L26.5803 10.0764V22.3317L16.0101 27.9997V23.0308Z M20.2321 13.6306L16.004 16V20.7999L20.2321 18.5327V13.6306Z" fill="#FDA3BD"/>
</svg>

<svg xmlns="http://www.w3.org/2000/svg" width="32" height="32" fill="none" viewBox="0 0 32 32"><path fill="#050203" d="M0 16C0 7.163 7.163 0 16 0s16 7.163 16 16-7.163 16-16 16S0 24.837 0 16"/><path fill="#F92B6C" d="M16 .96 2.752 8.384 5.44 9.929v-.005L9.8 12.43l1.912-1.07V6.408L16.01 4l10.565 6.074 2.673-1.498zM9.792 7.485v4.94L5.44 9.923zm0 4.95 6.201-3.475 6.201 3.565-1.967 1.102-4.223-2.427-4.228 2.37v.006z"/><path fill="#821334" d="M2.752 8.384 5.44 9.929v12.25L16 27.994v3.046L2.752 23.744zm9.024 5.192v4.895l4.217 2.323v2.246l-6.201-3.415v-7.19z"/><path fill="#DF2660" d="m16.01 28-.01-.006v3.046l13.248-7.104V8.576l-2.673 1.498.005.002v12.256zm-.017-7.206.011.006 4.228-2.267V13.63l-.005-.003 1.967-1.103v7.19l-6.2 3.325z"/><path fill="#FD8EAF" d="M11.712 6.409 16.01 4l10.57 6.077-4.386 2.457v-.01l-6.2-3.564-4.282 2.4zm-1.92 1.076L5.44 9.923l4.352 2.502zm6.212 3.715-4.228 2.37L16.004 16zm0 4.8 4.228-2.37-4.228-2.43z"/><path fill="#FFD7E0" d="M9.8 12.43 5.44 9.924v12.255L16.01 28v-4.97l-.017.01-6.201-3.415v-7.19l1.984 1.14-1.984-1.14zm1.976 1.14L16.004 16v4.8l-4.228-2.329z"/><path fill="#FDA3BD" d="m16.01 23.03 6.184-3.315v-7.18l4.386-2.459v12.256L16.01 28zm4.222-9.4L16.004 16v4.8l4.228-2.267z"/></svg>
